en/_assets/api-gateway/spec-constructor/cloud-datastreams.svg

<?xml version="1.0" encoding="UTF-8"?>
<svg xmlns="http://www.w3.org/2000/svg" xmlns:xlink="http://www.w3.org/1999/xlink" width="16px" height="16px" viewBox="0 0 16 16" version="1.1">
<g id="surface1">
<path style=" stroke:none;fill-rule:evenodd;fill:rgb(32.156863%,50.980392%,100%);fill-opacity:1;" d="M 11 13.492188 C 11 13.265625 11.050781 13.054688 11.144531 12.855469 L 9.296875 11 L 8 11 L 8 11.679688 C 8 12.414062 7.40625 13 6.679688 13 L 1.320312 13 C 0.589844 13 0 12.414062 0 11.679688 L 0 3.320312 C 0 2.589844 0.59375 2 1.320312 2 L 6.679688 2 C 7.410156 2 8 2.589844 8 3.320312 L 8 4 L 9.300781 4 L 11.144531 2.148438 C 11.035156 1.917969 10.984375 1.667969 11 1.414062 C 11.015625 1.160156 11.09375 0.914062 11.230469 0.699219 C 11.363281 0.484375 11.550781 0.308594 11.773438 0.1875 C 11.996094 0.0664062 12.246094 0 12.5 0.00390625 C 12.722656 0 12.945312 0.0507812 13.148438 0.148438 C 13.351562 0.246094 13.53125 0.390625 13.671875 0.566406 C 13.8125 0.742188 13.910156 0.945312 13.960938 1.167969 C 14.011719 1.386719 14.011719 1.613281 13.960938 1.832031 C 13.914062 2.054688 13.8125 2.257812 13.675781 2.433594 C 13.535156 2.613281 13.355469 2.753906 13.152344 2.851562 C 12.949219 2.949219 12.726562 3 12.503906 3.003906 C 12.277344 3.003906 12.054688 2.953125 11.851562 2.855469 L 9.859375 4.855469 C 9.765625 4.949219 9.636719 5 9.507812 5 L 8 5 L 8 7 L 13.082031 7 C 13.289062 6.414062 13.84375 6 14.496094 6 C 14.894531 6 15.277344 6.15625 15.558594 6.4375 C 15.839844 6.71875 15.996094 7.101562 15.996094 7.5 C 15.996094 7.898438 15.839844 8.28125 15.558594 8.5625 C 15.277344 8.84375 14.894531 9 14.496094 9 C 13.84375 9 13.289062 8.585938 13.082031 8 L 8 8 L 8 10 L 9.507812 10 C 9.636719 10 9.765625 10.054688 9.859375 10.144531 L 11.851562 12.144531 C 12.082031 12.035156 12.332031 11.984375 12.585938 12 C 12.839844 12.011719 13.085938 12.089844 13.300781 12.226562 C 13.515625 12.359375 13.691406 12.546875 13.816406 12.769531 C 13.9375 12.988281 14 13.238281 14.003906 13.492188 C 14.003906 13.691406 13.964844 13.886719 13.890625 14.070312 C 13.816406 14.253906 13.703125 14.417969 13.5625 14.558594 C 13.425781 14.699219 13.257812 14.808594 13.078125 14.886719 C 12.894531 14.960938 12.699219 15 12.5 15 C 12.300781 15 12.105469 14.960938 11.925781 14.886719 C 11.742188 14.808594 11.574219 14.699219 11.4375 14.558594 C 11.296875 14.417969 11.1875 14.253906 11.109375 14.070312 C 11.035156 13.886719 10.996094 13.691406 10.996094 13.492188 Z M 7 9.507812 L 7 9.492188 C 7 9.363281 6.945312 9.238281 6.851562 9.144531 C 6.757812 9.050781 6.632812 9 6.503906 9 L 1.496094 9 C 1.367188 9 1.242188 9.050781 1.148438 9.144531 C 1.054688 9.238281 1 9.363281 1 9.492188 L 1 9.507812 C 1 9.636719 1.054688 9.761719 1.148438 9.855469 C 1.242188 9.949219 1.367188 10 1.496094 10 L 6.503906 10 C 6.632812 10 6.757812 9.949219 6.851562 9.855469 C 6.945312 9.761719 7 9.636719 7 9.507812 Z M 7 5.507812 L 7 5.492188 C 7 5.363281 6.945312 5.238281 6.851562 5.144531 C 6.757812 5.054688 6.632812 5 6.503906 5 L 1.496094 5 C 1.367188 5 1.242188 5.054688 1.148438 5.144531 C 1.054688 5.238281 1 5.363281 1 5.492188 L 1 5.507812 C 1.003906 5.640625 1.054688 5.761719 1.148438 5.855469 C 1.242188 5.949219 1.367188 6 1.496094 6 L 6.503906 6 C 6.632812 6 6.757812 5.949219 6.851562 5.855469 C 6.945312 5.761719 6.996094 5.640625 7 5.507812 Z M 7 5.507812 "/>
</g>
</svg>

<svg xmlns="http://www.w3.org/2000/svg" width="16" height="16" viewBox="0 0 16 16">
    <path d="M11 13.492c0-.226.05-.437.145-.637L9.297 11H8v.68C8 12.414 7.406 13 6.68 13H1.32C.59 13 0 12.414 0 11.68V3.32C0 2.59.594 2 1.32 2h5.36C7.41 2 8 2.59 8 3.32V4h1.3l1.845-1.852A1.492 1.492 0 0 1 11.23.7c.133-.215.32-.39.543-.511A1.47 1.47 0 0 1 12.5.005c.223-.004.445.047.648.144a1.514 1.514 0 0 1 .813 1.02c.05.219.05.445 0 .664a1.478 1.478 0 0 1-.809 1.02 1.563 1.563 0 0 1-.648.152c-.227 0-.45-.05-.652-.149l-1.993 2A.5.5 0 0 1 9.508 5H8v2h5.082a1.502 1.502 0 0 1 2.477-.563 1.51 1.51 0 0 1 0 2.126A1.502 1.502 0 0 1 13.082 8H8v2h1.508c.129 0 .258.055.351.145l1.993 2c.23-.11.48-.16.734-.145.254.012.5.09.715.227a1.495 1.495 0 0 1 .261 2.332c-.136.14-.304.25-.484.328A1.54 1.54 0 0 1 12.5 15a1.493 1.493 0 0 1-1.063-.441 1.546 1.546 0 0 1-.328-.489 1.54 1.54 0 0 1-.113-.578ZM7 9.508v-.016a.495.495 0 0 0-.148-.347A.491.491 0 0 0 6.504 9H1.496a.491.491 0 0 0-.348.145.495.495 0 0 0-.148.347v.016c0 .129.055.254.148.347a.491.491 0 0 0 .348.145h5.008c.129 0 .254-.05.348-.145A.495.495 0 0 0 7 9.508Zm0-4v-.016a.495.495 0 0 0-.148-.347A.508.508 0 0 0 6.504 5H1.496a.508.508 0 0 0-.348.145.495.495 0 0 0-.148.347v.016A.505.505 0 0 0 1.496 6h5.008A.505.505 0 0 0 7 5.508Zm0 0" style="stroke:none;fill-rule:evenodd;fill:#5282ff;fill-opacity:1"/>
</svg>
